vendor/shopware/storefront/Resources/app/storefront/dist/assets/icon/default/arrow-turn-right.svg

<svg xmlns="http://www.w3.org/2000/svg" width="24" height="24" viewBox="0 0 24 24">
  <path fill="#758CA3" fill-rule="evenodd" d="M12,14 L12,20 L18,20 L18,14 L12,14 Z M18.5857864,6 L8,6 C5.790861,6 4,7.790861 4,10 L4,23 C4,23.5522847 3.55228475,24 3,24 C2.44771525,24 2,23.5522847 2,23 L2,10 C2,6.6862915 4.6862915,4 8,4 L18.5857864,4 L16.2928932,1.70710678 C15.9023689,1.31658249 15.9023689,0.683417511 16.2928932,0.292893219 C16.6834175,-0.0976310729 17.3165825,-0.0976310729 17.7071068,0.292893219 L21.7071068,4.29289322 C22.0976311,4.68341751 22.0976311,5.31658249 21.7071068,5.70710678 L17.7071068,9.70710678 C17.3165825,10.0976311 16.6834175,10.0976311 16.2928932,9.70710678 C15.9023689,9.31658249 15.9023689,8.68341751 16.2928932,8.29289322 L18.5857864,6 Z M12,12 L18,12 C19.1045695,12 20,12.8954305 20,14 L20,20 C20,21.1045695 19.1045695,22 18,22 L12,22 C10.8954305,22 10,21.1045695 10,20 L10,14 C10,12.8954305 10.8954305,12 12,12 Z"/>
</svg>

<svg xmlns="http://www.w3.org/2000/svg" width="24" height="24" viewBox="0 0 24 24"><path fill="#758CA3" fill-rule="evenodd" d="M12 14v6h6v-6h-6zm6.5858-8H8c-2.2091 0-4 1.7909-4 4v13c0 .5523-.4477 1-1 1s-1-.4477-1-1V10c0-3.3137 2.6863-6 6-6h10.5858l-2.293-2.2929c-.3904-.3905-.3904-1.0237 0-1.4142.3906-.3905 1.0238-.3905 1.4143 0l4 4c.3905.3905.3905 1.0237 0 1.4142l-4 4c-.3905.3905-1.0237.3905-1.4142 0-.3905-.3905-.3905-1.0237 0-1.4142L18.5858 6zM12 12h6c1.1046 0 2 .8954 2 2v6c0 1.1046-.8954 2-2 2h-6c-1.1046 0-2-.8954-2-2v-6c0-1.1046.8954-2 2-2z"/></svg>
